assets/imgs/bg-shape-6.svg

<svg width="1920" height="1036" viewBox="0 0 1920 1036" fill="none" xmlns="http://www.w3.org/2000/svg">
<mask id="mask0_638_1689" style="mask-type:alpha" maskUnits="userSpaceOnUse" x="0" y="0" width="1920" height="1036">
<path d="M1920 1018.79C1920 1028.3 1914.34 1036 1907.37 1036H12.6316C5.6554 1036 0 1028.3 0 1018.79V17.2094C0 7.70496 5.6554 0 12.6316 0H1907.37C1914.34 0 1920 7.70496 1920 17.2094V1018.79Z" fill="#1C1C1C"/>
</mask>
<g mask="url(#mask0_638_1689)">
<path d="M365.466 252.067C365.466 252.067 99.6271 463.656 -264.552 463.263C-628.76 462.881 -72.7093 -220.444 -72.7093 -220.444C-72.7203 -220.421 -103.532 -181.853 -103.532 -181.853" stroke="#1351D8" stroke-opacity="0.12" stroke-width="0.877694"/>
<path d="M350.977 267.793C350.977 267.793 87.2359 486.374 -277.374 483.368C-641.967 480.361 -93.0066 -227.791 -93.0066 -227.791C-93.0176 -227.767 -123.428 -187.795 -123.428 -187.795" stroke="#1351D8" stroke-opacity="0.12" stroke-width="0.877694"/>
<path d="M336.092 284.007C336.092 284.007 74.4241 509.604 -290.599 503.972C-655.619 498.337 -113.7 -234.618 -113.7 -234.618C-113.711 -234.595 -143.722 -193.218 -143.722 -193.218" stroke="#1351D8" stroke-opacity="0.12" stroke-width="0.877694"/>
<path d="M320.64 300.945C320.64 300.945 61.0286 533.56 -304.427 525.305C-669.89 517.045 -134.977 -240.72 -134.977 -240.72C-134.988 -240.696 -164.603 -197.914 -164.603 -197.914" stroke="#1351D8" stroke-opacity="0.12" stroke-width="0.877694"/>
<path d="M305.124 317.968C305.124 317.968 47.5621 557.582 -318.34 546.706C-684.241 535.828 -156.322 -246.759 -156.322 -246.759C-156.334 -246.735 -185.554 -202.548 -185.554 -202.548" stroke="#1351D8" stroke-opacity="0.12" stroke-width="0.877694"/>
<path d="M289.519 335.075C289.519 335.075 33.9832 581.713 -332.387 568.218C-698.769 554.716 -177.786 -252.695 -177.786 -252.695C-177.797 -252.671 -206.624 -207.078 -206.624 -207.078" stroke="#1351D8" stroke-opacity="0.12" stroke-width="0.877694"/>
<path d="M273.87 352.278C273.87 352.278 20.3451 605.944 -346.536 589.822C-713.417 573.699 -199.334 -258.546 -199.334 -258.546C-199.346 -258.522 -227.781 -211.523 -227.781 -211.523" stroke="#1351D8" stroke-opacity="0.12" stroke-width="0.877694"/>
<path d="M258.159 369.552C258.159 369.552 6.62838 630.247 -360.75 611.486C-728.125 592.748 -220.933 -264.348 -220.933 -264.348C-220.945 -264.322 -248.992 -215.915 -248.992 -215.915" stroke="#1351D8" stroke-opacity="0.12" stroke-width="0.877694"/>
<path d="M-154.618 620.878C-154.618 620.878 285.426 487.643 400.616 176.5C515.803 -134.618 -809.195 37.4129 -809.195 37.4129L-734.552 28.1922" stroke="#1351D8" stroke-opacity="0.12" stroke-width="0.877694"/>
<path d="M-175.065 635.737C-175.065 635.737 257.319 499.503 375.184 189.705C493.055 -120.091 -805.005 62.7141 -805.005 62.7141L-731.888 52.8823" stroke="#1351D8" stroke-opacity="0.12" stroke-width="0.877694"/>
<path d="M-195.681 653.1C-195.681 653.1 229.04 513.871 349.571 205.419C470.109 -103.031 -800.976 90.522 -800.976 90.522L-729.386 80.0816" stroke="#1351D8" stroke-opacity="0.12" stroke-width="0.877694"/>
<path d="M-216.494 670.637C-216.494 670.637 200.559 528.416 323.759 221.29C446.966 -85.8342 -797.151 118.478 -797.151 118.478L-727.088 107.428" stroke="#1351D8" stroke-opacity="0.12" stroke-width="0.877694"/>
<path d="M-237.479 688.352C-237.479 688.352 171.894 543.166 297.754 237.366C423.609 -68.4102 -793.527 146.629 -793.527 146.629L-724.993 134.971" stroke="#1351D8" stroke-opacity="0.12" stroke-width="0.877694"/>
<path d="M-258.656 706.147C-258.656 706.147 143.044 557.976 271.544 253.526C400.048 -50.9233 -790.116 174.856 -790.116 174.856L-723.109 162.59" stroke="#1351D8" stroke-opacity="0.12" stroke-width="0.877694"/>
<path d="M-280.658 723.465C-280.658 723.465 113.367 572.314 244.495 269.214C375.629 -33.8853 -787.579 202.601 -787.579 202.601L-722.1 189.729" stroke="#1351D8" stroke-opacity="0.12" stroke-width="0.877694"/>
<path d="M-302.977 740.725C-302.977 740.725 83.3662 586.597 217.112 284.848C350.874 -16.9219 -785.347 230.264 -785.347 230.264L-721.396 216.784" stroke="#1351D8" stroke-opacity="0.12" stroke-width="0.877694"/>
<path d="M-326.666 756.954C-326.666 756.954 51.983 599.875 188.355 299.434C324.721 -0.982789 -784.508 256.89 -784.508 256.89L-722.085 242.805" stroke="#1351D8" stroke-opacity="0.12" stroke-width="0.877694"/>
<path d="M-351.411 772.414C-351.411 772.414 19.5492 612.366 158.514 313.278C297.483 14.1926 -784.765 282.764 -784.765 282.764L-723.869 268.073" stroke="#1351D8" stroke-opacity="0.12" stroke-width="0.877694"/>
<path d="M-377.158 787.148C-377.158 787.148 -13.8916 624.134 127.651 326.401C269.198 28.6689 -786.052 307.905 -786.052 307.905L-726.685 292.608" stroke="#1351D8" stroke-opacity="0.12" stroke-width="0.877694"/>
<path d="M-403.8 801.188C-403.8 801.188 -48.233 635.212 95.8729 338.834C239.994 42.4355 -788.289 332.339 -788.289 332.339L-730.449 316.44" stroke="#1351D8" stroke-opacity="0.12" stroke-width="0.877694"/>
<path d="M-430.572 814.416C-430.572 814.416 -82.7207 645.505 63.9516 350.44C210.618 55.398 -790.646 355.921 -790.646 355.921L-734.335 339.418" stroke="#1351D8" stroke-opacity="0.12" stroke-width="0.877694"/>
<path d="M-457.358 826.908C-457.358 826.908 -117.217 655.043 31.9835 361.336C181.188 67.6294 -793.074 378.803 -793.074 378.803L-738.292 361.698" stroke="#1351D8" stroke-opacity="0.12" stroke-width="0.877694"/>
<path d="M-482.31 838.272C-482.31 838.272 -149.891 663.457 1.82106 371.109C153.535 78.7611 -793.709 400.55 -793.709 400.55L-740.456 382.843" stroke="#1351D8" stroke-opacity="0.12" stroke-width="0.877694"/>
<path d="M-505.659 848.619C-505.659 848.619 -180.975 670.881 -26.7627 379.871C127.448 88.8602 -792.805 421.267 -792.805 421.267L-741.082 402.96" stroke="#1351D8" stroke-opacity="0.12" stroke-width="0.877694"/>
</g>
</svg>

<svg xmlns="http://www.w3.org/2000/svg" width="1920" height="1036" fill="none" xmlns:v="https://vecta.io/nano"><style><![CDATA[.B{stroke:#1351d8}.C{stroke-opacity:.12}.D{stroke-width:.878}]]></style><mask id="A" maskUnits="userSpaceOnUse" x="0" y="0" width="1920" height="1036" mask-type="alpha"><path d="M1920 1018.79c0 9.51-5.66 17.21-12.63 17.21H12.632C5.655 1036 0 1028.3 0 1018.79V17.209C0 7.705 5.655 0 12.632 0H1907.37c6.97 0 12.63 7.705 12.63 17.209V1018.79z" fill="#1c1c1c"/></mask><g mask="url(#A)" class="B C D"><path d="M365.466 252.067S99.627 463.656-264.552 463.263c-364.208-.382 191.843-683.707 191.843-683.707-.011.023-30.823 38.591-30.823 38.591m454.509 449.646S87.236 486.374-277.374 483.368c-364.593-3.007 184.367-711.159 184.367-711.159-.011.024-30.421 39.996-30.421 39.996m459.52 471.802S74.424 509.604-290.599 503.972-113.7-234.618-113.7-234.618c-.011.023-30.022 41.4-30.022 41.4M320.64 300.945S61.029 533.56-304.427 525.305c-365.463-8.26 169.45-766.025 169.45-766.025-.011.024-29.626 42.806-29.626 42.806m469.727 515.882S47.562 557.582-318.34 546.706s162.018-793.465 162.018-793.465c-.012.024-29.232 44.211-29.232 44.211m475.073 537.623S33.983 581.713-332.387 568.218c-366.382-13.502 154.601-820.913 154.601-820.913-.011.024-28.838 45.617-28.838 45.617M273.87 352.278S20.345 605.944-346.536 589.822s147.202-848.368 147.202-848.368c-.012.024-28.447 47.023-28.447 47.023m485.94 581.075S6.628 630.247-360.75 611.486c-367.375-18.738 139.817-875.834 139.817-875.834-.012.026-28.059 48.433-28.059 48.433"/><path d="M-154.618 620.878S285.426 487.643 400.616 176.5C515.803-134.618-809.195 37.413-809.195 37.413l74.643-9.221"/><path d="M-175.065 635.737s432.384-136.234 550.249-446.032C493.055-120.091-805.005 62.714-805.005 62.714l73.117-9.832"/><path d="M-195.681 653.1S229.04 513.871 349.571 205.419C470.109-103.031-800.976 90.522-800.976 90.522l71.59-10.44"/><path d="M-216.494 670.637S200.559 528.416 323.759 221.29C446.966-85.834-797.151 118.478-797.151 118.478l70.063-11.05"/><path d="M-237.479 688.352s409.373-145.186 535.233-450.986C423.609-68.41-793.527 146.629-793.527 146.629l68.534-11.658"/><path d="M-258.656 706.147s401.7-148.171 530.2-452.621-1061.66-78.67-1061.66-78.67l67.007-12.266"/><path d="M-280.658 723.465s394.025-151.151 525.153-454.251C375.629-33.885-787.579 202.601-787.579 202.601l65.479-12.872"/><path d="M-302.977 740.725S83.366 586.597 217.112 284.848c133.762-301.77-1002.459-54.584-1002.459-54.584l63.951-13.48"/><path d="M-326.666 756.954s378.649-157.079 515.021-457.52C324.721-.983-784.508 256.89-784.508 256.89l62.423-14.085"/><path d="M-351.411 772.414s370.96-160.048 509.925-459.136-943.279-30.514-943.279-30.514l60.896-14.691"/><path d="M-377.158 787.148s363.266-163.014 504.809-460.747-913.703-18.496-913.703-18.496l59.367-15.297"/><path d="M-403.8 801.188S-48.233 635.212 95.873 338.834c144.121-296.398-884.162-6.495-884.162-6.495l57.84-15.899m299.877 497.976S-82.721 645.505 63.952 350.44c146.666-295.042-854.598 5.481-854.598 5.481l56.311-16.503m276.977 487.49s340.141-171.865 489.342-465.572-825.057 17.467-825.057 17.467l54.782-17.105m255.981 476.574S-149.891 663.457 1.821 371.109s-795.53 29.441-795.53 29.441l53.253-17.707m234.797 465.776s324.684-177.738 478.896-468.748-766.042 41.396-766.042 41.396l51.723-18.307"/></g></svg>
